X:1
T:Filius Dei, CMD
T:Filius Dei, CMD
T:Alffred Robert Gaul, ca. 1859
T:Public Domain Courtesy of the Cyber Hymnal™
C:Alffred Robert Gaul, ca. 1859
Z:Public Domain
Z:Courtesy of the Cyber Hymnal™
%%score ( 1 2 ) ( 3 4 )
L:1/8
Q:1/4=113
M:4/4
K:Bb
V:1 treble 
V:2 treble 
V:3 bass 
V:4 bass 
V:1
 [DB]2 | [B,D]2 [CE]2 [DF]2 [DF]2 | [DG]2 [DA]2 [DB]2 [=Ec]2 | [Fd]2 [Fe]2 [Ef]2 [Ec]2 | %4
 [Dd]6 [DB]2 | [B,D]2 [CE]2 [DF]2 [DF]2 | [=EG]2 [^FA]2 [GB]2 [Gc]2 | [Fc]2 [FA]2 [=EA]2 [EG]2 | %8
 F6 [FB]2 | [EA]2 [EG]2 [EF]2 [EG]2 | [DG]3 [DF] [DF]2 [DF]2 | [D^F]2 [DF]2 [DG]2 [DG]2 | %12
 [DA]6 [DB]2 | [CG]2 [EF]2 [DF]2 [EB]2 | [EG]2 [EF]2 [DF]2 [EB]2 | [DB]2 [DF]2 [EG]2 [EF]2 | %16
 [DF]6 |] %17
V:2
 x2 | x8 | x8 | x8 | x8 | x8 | x8 | x8 | F6 x2 | x8 | x8 | x8 | x8 | x8 | x8 | x8 | x6 |] %17
V:3
 [B,,B,]2 | [B,,B,]2 [B,,B,]2 [B,,B,]2 [B,,B,]2 | B,2 [A,B,]2 [G,B,]2 [G,B,]2 | %3
 [F,B,]2 [F,B,]2 [F,B,]2 [F,A,]2 | [B,,B,]6 [B,,B,]2 | [B,,B,]2 [B,,B,]2 [B,,B,]2 [B,,D]2 | %6
 [B,C]2 [A,C]2 [G,B,]2 [=E,B,]2 | [F,A,]2 [F,C]2 [C,C]2 [C,B,]2 | [F,A,]6 [F,D]2 | %9
 [F,C]2 [F,B,]2 [F,A,]2 [F,A,]2 | [B,,B,]3 [B,,B,] [B,,B,]2 [B,D]2 | [A,C]2 [A,C]2 [G,C]2 [G,C]2 | %12
 [^F,C]6 [G,B,]2 | A,2 [A,,C]2 [B,,B,]2 [G,,B,]2 | [A,,C]2 [A,,C]2 [B,,B,]2 [G,,B,]2 | %15
 [F,,B,]2 [F,B,]2 [F,B,]2 [F,,A,]2 | [B,,B,]6 |] %17
V:4
 x2 | x8 | B,2 x6 | x8 | x8 | x8 | x8 | x8 | x8 | x8 | x8 | x8 | x8 | A,2 x6 | x8 | x8 | x6 |] %17

